X:1
T:Title
%%score { ( 1 3 ) | 2 }
L:1/8
Q:1/4=110
M:4/4
K:Ab
V:1 treble nm="Grand Piano"
V:3 treble 
V:2 bass 
V:1
 [CE]2 [CE]2 [CE]2 [CE]2 | F2 A2 A4 | B2 B2 B2 E2 | c2 c2 c4 | [CE]2 [CE]2 [CE]2 [CE]2 | %5
w: John~R.~Sweney * * *|||||
 [DF]2 [FA]2 [FA]2 [Fd][Fd] | c2 B2 c3 B | [CEA]6 z2 | [FA]4 [Fd]4[K:bass] | %9
w: ||||
 [Fd][Ec][Ec][=D_c] [E=c]4 | c2 B2 E2 B2 | [EA]2 B2 c4 | [Fd]2 [Fd]2 [DF]2 [Fd]2 | %13
w: ||||
 [Fd]2 [Ec]2 [Ec]2 [Ec][Fd] | c2 B2 c3 B | [CA]6 z2 |] %16
w: |||
V:2
 [A,,A,]2 [A,,A,]2 [A,,A,]2 [A,,A,]2 | [D,A,D]2 [F,A,D]2 [A,C]4 | %2
 [E,G,E]2 [E,G,E]2 [E,G,E]2 [G,B,]2 | [A,E]2 [A,E]2 [A,E]4 | [A,,A,]2 [A,,A,]2 [A,,A,]2 [A,,A,]2 | %5
 [D,A,]2 [D,D]2 [D,D]2 [D,A,][D,A,] | [E,A,E]2 [E,G,E]2 [E,A,E]3 [E,DE] | A,,6 z2 | %8
 D,2 D,2 [D,A,]2 z2 | [A,,A,][A,,A,][A,,A,][A,,A,] [A,,A,]4 | [E,G,D]2 [E,G,D]2 [E,G,D]2 [E,G,D]2 | %11
 [C,A,]2 [E,G,E]2 [A,E]4 | [D,A,]2 [D,A,]2 [D,A,]2 [D,A,]2 | %13
 [A,,A,]2 [A,,A,]2 [A,,A,]2 [A,,A,][A,,A,] | [E,A,E]2 [E,G,E]2 [E,A,E]3 [E,D] | [A,,E,]6 z2 |] %16
V:3
 x8 | x8 | x8 | x8 | x8 | x8 | x8 | x8 | D2 D2 z2[K:bass] [D,A,]2 | x8 | x8 | x8 | x8 | x8 | x8 | %15
 x8 |] %16

